X:1

T:Devil’s in Dublin, The

T:Devils of Dublin, The

M:C|

L:1/8

K:D

d2 dA BAGB|AFBF A~F3|A~d3 Adfd|e/f/e df e~B3|

deedB {c}BAFB|AFBF A~F3|ABde fdce|dBAG FD D2:|

|:a/g/f g/f/e ~f3e|dcBA BAFB|A~d3 Adfd|e~B3 e~B3|

abag ~f3e|defd BAFB|ABde fdce|dBAG FD D2:|

 

DEVIL’S IN DUBLIN [2], THE.  English, Jig. G Major. Standard tuning. AABB. Kennedy (Jigs & Quicksteps, Trips & Humours), 1997; No. 27, pg. 9.

                       

DEVIL'S IN THE KITCHEN, THE. See "Devil in the Kitchen."

                       

DEVIL’S MAGGOT, THE.  American, Jig. C Major (‘A’ part) & C Dorian (‘B’ part). Standard tuning. AABB. Composed in the English country dance style by pianist Jonathan Jensen in 1985. Jensen is also a bassist with the Baltimore Symphony. A ‘maggot’ was an old term for a brief melody—a fancy, or trifle, from the Italian word magioletta meaning a plaything. Barnes (English Country Dance Tunes, vol. 2), 2005; pg. 31.

                       


DEVILS O' DUBLIN, THE. See "Devils in Dublin."

 

DEVIL'S OWN HORNPIPE. New England, Hornpipe. B Flat Major. Standard tuning. AABB. Composed by Ralph Page. Page (Ralph Page Book of Contras), 1969; pg. 13.

 

DEVIL'S OWN SHOT, THE. American, Jig. D Major. Standard tuning. AABB. Cole (1000 Fiddle Tunes), 1940; pg. 73. Ryan’s Mammoth Collection, 1883; pg. 104.

